apps/www/public/images/logos/publicity/fixed-width/udio.svg

<svg width="180" height="60" viewBox="0 0 180 60" fill="none" xmlns="http://www.w3.org/2000/svg">
<path d="M88.3755 26.3923C87.2427 25.5061 85.6982 24.9977 84.0171 24.9977C79.283 24.9977 75.885 28.6732 75.885 33.6102C75.885 38.5474 79.2807 42.2228 84.0171 42.2228C85.7318 42.2228 87.3098 41.6431 88.4783 40.6905V41.8807H93.6245V17.1667L88.3755 18.463V26.3923ZM84.944 37.5234C82.7815 37.5234 81.2035 35.8887 81.2035 33.6079C81.2035 31.3271 82.7815 29.6924 84.9774 29.6924C87.1734 29.6924 88.6819 31.2914 88.6819 33.6079C88.6819 35.9244 87.1734 37.5234 84.9415 37.5234H84.944Z" fill="#7E7E7E"/>
<path d="M101.991 24.8163L96.7422 26.1126V41.8781H101.991V24.8163Z" fill="#7E7E7E"/>
<path d="M99.3832 17.3353C97.7357 17.3353 96.5359 18.5945 96.5359 20.1958C96.5359 21.7972 97.7357 23.0564 99.3832 23.0564C101.031 23.0564 102.197 21.7972 102.197 20.1958C102.197 18.5945 101.031 17.3353 99.3832 17.3353Z" fill="#7E7E7E"/>
<path d="M113.114 24.962C107.899 24.962 103.988 28.6731 103.988 33.5746C103.988 38.476 107.935 42.2561 113.114 42.2561C118.294 42.2561 122.24 38.5117 122.24 33.5746C122.24 28.6375 118.294 24.962 113.114 24.962ZM113.114 37.5234C110.885 37.5234 109.34 35.9244 109.34 33.6078C109.34 31.2913 110.885 29.6924 113.114 29.6924C115.343 29.6924 116.888 31.2581 116.888 33.5723C116.888 35.8863 115.379 37.5209 113.114 37.5209V37.5234Z" fill="#7E7E7E"/>
<path d="M68.8399 34.8669C68.8399 36.6038 67.8797 37.6253 66.3016 37.6253H63.009V25.3348H57.76V32.415L63.009 37.6253H57.76L63.009 42.8333V37.6253L67.5899 42.1703C71.4836 41.6643 74.0889 38.8394 74.0889 34.9025V25.3348H68.8399V34.8669Z" fill="#7E7E7E"/>
</svg>

<svg xmlns="http://www.w3.org/2000/svg" width="180" height="60" fill="none" viewBox="0 0 180 60"><path fill="#7e7e7e" d="M88.376 26.392c-1.133-.886-2.678-1.394-4.359-1.394-4.734 0-8.132 3.675-8.132 8.612s3.396 8.613 8.132 8.613c1.715 0 3.293-.58 4.461-1.532v1.19h5.147V17.167l-5.25 1.296zm-3.432 11.131c-2.163 0-3.74-1.634-3.74-3.915 0-2.28 1.578-3.916 3.773-3.916s3.705 1.6 3.705 3.916-1.509 3.915-3.74 3.915zM101.991 24.816l-5.249 1.297v15.765h5.249zM99.383 17.335c-1.647 0-2.847 1.26-2.847 2.86 0 1.602 1.2 2.861 2.847 2.861s2.814-1.259 2.814-2.86c0-1.602-1.166-2.86-2.814-2.86M113.114 24.962c-5.215 0-9.126 3.711-9.126 8.613s3.947 8.681 9.126 8.681c5.18 0 9.126-3.744 9.126-8.681 0-4.938-3.946-8.613-9.126-8.613m0 12.561c-2.229 0-3.774-1.599-3.774-3.915 0-2.317 1.545-3.916 3.774-3.916s3.774 1.566 3.774 3.88-1.509 3.949-3.774 3.949zM68.84 34.867c0 1.737-.96 2.758-2.538 2.758h-3.293v-12.29H57.76v7.08l5.249 5.21H57.76l5.249 5.208v-5.208l4.58 4.545c3.895-.506 6.5-3.33 6.5-7.267v-9.568h-5.25z"/></svg>
